src/Stylish/24/status/system-suspend.svg

<?xml version="1.0" encoding="UTF-8" standalone="no"?>
<!-- Created with Inkscape (http://www.inkscape.org/) -->

<svg
   width="24"
   height="24"
   viewBox="0 0 24 24"
   version="1.1"
   id="svg5"
   inkscape:version="1.4.4 (dcaf3e7d9e, 2026-05-05)"
   sodipodi:docname="system-suspend.svg"
   xmlns:inkscape="http://www.inkscape.org/namespaces/inkscape"
   xmlns:sodipodi="http://sodipodi.sourceforge.net/DTD/sodipodi-0.dtd"
   xmlns:xlink="http://www.w3.org/1999/xlink"
   xmlns="http://www.w3.org/2000/svg"
   xmlns:svg="http://www.w3.org/2000/svg">
  <sodipodi:namedview
     id="namedview7"
     pagecolor="#ffffff"
     bordercolor="#000000"
     borderopacity="0.25"
     inkscape:showpageshadow="2"
     inkscape:pageopacity="0.0"
     inkscape:pagecheckerboard="0"
     inkscape:deskcolor="#d1d1d1"
     inkscape:document-units="px"
     showgrid="false"
     inkscape:zoom="33.166667"
     inkscape:cx="12"
     inkscape:cy="12"
     inkscape:window-width="1920"
     inkscape:window-height="1012"
     inkscape:window-x="0"
     inkscape:window-y="0"
     inkscape:window-maximized="1"
     inkscape:current-layer="svg5" />
  <defs
     id="defs2">
    <linearGradient
       inkscape:collect="always"
       xlink:href="#linearGradient1056"
       id="linearGradient2881"
       x1="16"
       y1="2.999999"
       x2="29"
       y2="29"
       gradientUnits="userSpaceOnUse"
       gradientTransform="matrix(0.76923075,0,0,0.76923075,-0.307692,-0.3076915)" />
    <linearGradient
       inkscape:collect="always"
       id="linearGradient1056">
      <stop
         style="stop-color:#31cedf;stop-opacity:1;"
         offset="0"
         id="stop1052" />
      <stop
         style="stop-color:#90e0e4;stop-opacity:1;"
         offset="1"
         id="stop1054" />
    </linearGradient>
  </defs>
  <circle
     style="fill:url(#linearGradient2881);stroke:none;stroke-width:1.53846;stroke-linecap:round;stroke-linejoin:round;stroke-dasharray:none;stroke-opacity:1"
     id="path2873"
     cx="12"
     cy="12"
     r="10" />
  <path
     id="path1853"
     style="fill:#ffffff;stroke-linecap:round;stroke-linejoin:round;paint-order:stroke fill markers"
     d="m 12,5 c -3.8659895,1e-7 -7.0000002,3.1340107 -7.0000002,7 0,3.865989 3.1340107,7 7.0000002,7 3.865989,0 7,-3.134011 7,-7 0,-3.8659893 -3.134011,-7 -7,-7 z m 0,1 c 3.313705,0 6,2.6862948 6,6 0,3.313705 -2.686295,6 -6,6 C 8.6862947,18 5.9999998,15.313705 5.9999998,12 5.9999998,8.6862949 8.6862947,6.0000001 12,6 Z m -4.0000002,5 v 2 H 16 v -2 z" />
</svg>

<?xml version="1.0" encoding="UTF-8" standalone="no"?>
<!-- Created with Inkscape (http://www.inkscape.org/) -->

<svg
   width="24"
   height="24"
   viewBox="0 0 24 24"
   version="1.1"
   id="svg5"
   inkscape:version="1.2.1 (9c6d41e410, 2022-07-14)"
   sodipodi:docname="system-suspend.svg"
   xmlns:inkscape="http://www.inkscape.org/namespaces/inkscape"
   xmlns:sodipodi="http://sodipodi.sourceforge.net/DTD/sodipodi-0.dtd"
   xmlns:xlink="http://www.w3.org/1999/xlink"
   xmlns="http://www.w3.org/2000/svg"
   xmlns:svg="http://www.w3.org/2000/svg">
  <sodipodi:namedview
     id="namedview7"
     pagecolor="#ffffff"
     bordercolor="#000000"
     borderopacity="0.25"
     inkscape:showpageshadow="2"
     inkscape:pageopacity="0.0"
     inkscape:pagecheckerboard="0"
     inkscape:deskcolor="#d1d1d1"
     inkscape:document-units="px"
     showgrid="false"
     inkscape:zoom="34.5"
     inkscape:cx="11.985507"
     inkscape:cy="12"
     inkscape:window-width="1920"
     inkscape:window-height="1008"
     inkscape:window-x="0"
     inkscape:window-y="0"
     inkscape:window-maximized="1"
     inkscape:current-layer="svg5"
     showguides="true" />
  <defs
     id="defs2">
    <linearGradient
       inkscape:collect="always"
       xlink:href="#linearGradient1056"
       id="linearGradient3500"
       x1="2"
       y1="2"
       x2="28.666666"
       y2="28.666666"
       gradientUnits="userSpaceOnUse"
       gradientTransform="matrix(0.75,0,0,0.75,0.50000018,0.5)" />
    <linearGradient
       inkscape:collect="always"
       id="linearGradient1056">
      <stop
         style="stop-color:#31cedf;stop-opacity:1;"
         offset="0"
         id="stop1052" />
      <stop
         style="stop-color:#90e0e4;stop-opacity:1;"
         offset="1"
         id="stop1054" />
    </linearGradient>
  </defs>
  <path
     id="path530"
     style="fill:url(#linearGradient3500);fill-opacity:1.0;stroke-width:0.750005;stroke-linecap:round;stroke-linejoin:round"
     d="M 10,2 C 3.1741142,2 2.0000002,3.2048695 2.0000002,10 v 4 c 0,6.79513 1.174114,8 7.9999998,8 h 4 c 6.825886,0 8,-1.20487 8,-8 V 10 C 22,3.2048695 20.825886,2 14,2 Z"
     sodipodi:nodetypes="sssssssss" />
  <path
     id="path1853"
     style="fill:#ffffff;stroke-linecap:round;stroke-linejoin:round;paint-order:stroke fill markers"
     d="M 12 5 C 8.1340107 5.0000001 5 8.1340107 5 12 C 5 15.865989 8.1340107 19 12 19 C 15.865989 19 19 15.865989 19 12 C 19 8.1340107 15.865989 5 12 5 z M 12 6 C 15.313705 6 18 8.6862948 18 12 C 18 15.313705 15.313705 18 12 18 C 8.6862949 18 6 15.313705 6 12 C 6 8.6862949 8.6862949 6.0000001 12 6 z M 8 11 L 8 13 L 16 13 L 16 11 L 8 11 z " />
</svg>
